src/images/single-assets/ROCK.svg

<svg version="1.1" id="Layer_1" xmlns="http://www.w3.org/2000/svg" xmlns:xlink="http://www.w3.org/1999/xlink" x="0px" y="0px"
	 width="100%" viewBox="0 0 496 496" enable-background="new 0 0 496 496" xml:space="preserve">
<path fill="#000000" opacity="1.000000" stroke="none" 
	d="
M366.308258,205.657837 
	C377.296173,215.412399 386.439911,226.143677 391.474335,239.785461 
	C400.285339,263.660858 396.399323,287.180634 376.245239,306.445801 
	C360.437225,321.556580 341.414581,330.788757 320.723511,336.926758 
	C299.883881,343.108826 278.472809,346.621490 256.821594,346.110565 
	C224.588852,345.349945 192.925491,340.503662 163.045303,327.404144 
	C148.865860,321.187836 136.270111,312.667114 125.222343,301.747314 
	C101.489594,278.289490 100.118340,251.761551 116.469536,223.498184 
	C130.172714,199.811966 151.188385,184.344193 176.631104,174.775375 
	C202.542892,165.030106 229.341568,163.094757 256.711731,165.473892 
	C278.851257,167.398346 300.494812,171.280548 321.215607,179.575485 
	C337.395691,186.052689 352.633087,194.144791 366.308258,205.657837 
z"/>
</svg>

<svg xmlns="http://www.w3.org/2000/svg" xml:space="preserve" viewBox="0 0 496 496"><path d="M366.308 205.658c10.988 9.754 20.132 20.486 25.166 34.127 8.811 23.876 4.925 47.396-15.229 66.66-15.808 15.112-34.83 24.344-55.521 30.482-20.84 6.182-42.251 9.694-63.902 9.184-32.233-.761-63.897-5.607-93.777-18.707-14.18-6.216-26.775-14.737-37.823-25.657-23.732-23.458-25.104-49.985-8.752-78.249 13.703-23.686 34.718-39.154 60.161-48.723 25.912-9.745 52.71-11.68 80.08-9.301 22.14 1.924 43.784 5.807 64.505 14.101 16.18 6.478 31.417 14.57 45.092 26.083"/></svg>
